X:1
T:Motif 6
L:1/8
M:4/4
V:1
V:2 clef=bass
K:C
[V:1] DFAc efdc | BcBA GF E2 | CEGB decB | A_BAG FE ^C2 :|
[V:2] [D,F,C]8 | [G,,F,B,]8 | [C,E,B,]8 | [A,,G,^C]8 :|